X: 1
T: Elizabeth's White Coat [a Mabou Reel]
S: BSFC Tune Book VII-17
R: reel
Z: 2016 John Chambers <jc:trillian.mit.edu>
M: C|
L: 1/8
K: A
   e | "A"edc2 "E7"(dc)Bd | "A"cA A/A/A "G"=g2fa | "A"edc2 "G"(dc)Bd | "E7"e=gdB "A"A2A :|
|: d | "A"c2(ce) "E7"dBBd | "A"c2ce     "G"=g2fa | "A"c2(ce) "G"dBBd | "E7"e=gdB "A"A2A :|
